X: 153
T: Ershi feng luotuo Twenty camels
L: 1/8
M: 2/4
K: C
A G E G [I:setbarnb 1]| 
A4 | 
d c c A | 
C4 | 
DA,3 | 
GE2C/ D/ | 
A> G E C | 
A,4 |]

@@@ Tune index: 8821
